packages/nouns-webapp/src/assets/logo.svg

<svg width="167" height="215" viewBox="0 0 167 215" fill="none" xmlns="http://www.w3.org/2000/svg">
<path d="M28.2256 52.3599V0H82.7946V25.9483H55.0397V52.3599H28.2256Z" fill="#D63C5E"/>
<path d="M28.2256 215V162.64H82.7946V188.588H55.0397V215H28.2256Z" fill="#D63C5E"/>
<path d="M137.363 -0.000133514L137.363 52.3597L82.7943 52.3597L82.7943 26.4115L110.549 26.4115L110.549 -0.000135823L137.363 -0.000133514Z" fill="#D63C5E"/>
<path d="M137.363 162.64L137.363 215L82.7943 215L82.7943 189.052L110.549 189.052L110.549 162.64L137.363 162.64Z" fill="#D63C5E"/>
<path d="M110.549 81.5516H82.7944V134.375H167V81.5516H138.304V107.963H110.549V81.5516Z" fill="#D63C5E"/>
<rect y="80.1615" width="55.5099" height="54.6767" fill="#D63C5E"/>
</svg>

<svg xmlns="http://www.w3.org/2000/svg" width="167" height="215" fill="none">
    <path fill="#D63C5E" d="M28.226 52.36V0h54.569v25.948H55.04V52.36zm0 162.64v-52.36h54.569v25.948H55.04V215zM137.363 0v52.36H82.794V26.412h27.755V0zm0 162.64V215H82.794v-25.948h27.755V162.64zm-26.814-81.088H82.794v52.823H167V81.552h-28.696v26.411h-27.755zM0 80.162h55.51v54.677H0z"/>
</svg>
